X: 452
T: Call of the Shepherd
C:Bill Monroe
B: jims roots
M:4/4
L:1/8
Q: 1/4=100
K:G
V:1 
(3 BBB c2^c2 || "G"{^c}d4- ddcd | ed3 _BAGE | ([B,4G] [B,G])D (3EGE | ([B,4D][B,4D]) |
{B}d4- ddcd | e2d2 _BAGE | [B,4G]- [B,G]z z(3 c/B/_B/ "G7"([=F4A] | [F2A]) Dc/B/ "C"_B4- || BABd BAGD |
E2G2 "G"B4- | Bg_B=B G4- | G2D2 {^c}d4- | ddcd e2d2| "D"_BAGE "G"([B,4G] | [B,2G])[B,G]A [B,4G]- | [B,3G] z4 c/B/- ||
"C"_B4- BABd | BAGD E2G2 | "G"B4- Bg_B=B | G4- G2 Dc/B/  | "C"_B4- BABd | BAGD EG2D |
"D"FA-A2- AA[FA]A | {c}d4- d2zd  || "G"{=f}g4- gd (3 eg(e | (3 d)ed B2(3 AB(A (3 G)EG y({A}[B2G] |
V:BG 
)d {B}A{B}A G4- | GDEG ([B4G] | [BG])d {B}_B=B GDEG | "D"_BA G/A/-A "G"([G4B,] | [B,2G])[B,G]A [B,4G] |]
% abcbook-tune_id 6298c2451341f700083534dc


% abcbook-boost 0
% abcbook-tablature 
% abcbook-transpose 
% abcbook-lastupdated 1654178373608
% abcbook-soundfonts 
% abcbook-repeats 1


